X:358
T: Der falsche Bursche (89), S. 233
N: T0247
O: Luxemburg
S: Singendes Volk, Esch-Alzette 1937 posth.]
N: Junglinster, fff Sisy Minden, 27.2.1932
R: Liebeslieder]
M: 3/4
L: 1/8
K: Eb
EF | G3EFE | DFF2
FB | B3BcB | G2z2
EF | G3EFE | DFF2
FB | B3BcB | G2z2
EF | GEcBBA | F2z2
FG | ABdcBA | G2z2
EF | GEcBBA | F2z4 |
dcBBcd | e2z2

@@@ Tune index: 8412
